printer-pos-pause-outline.svg

<svg fill="currentColor" viewBox="0 0 24 24"><path d="M20 12a2 2 0 0 0-2-2h-1V4H7v6H6a2 2 0 0 0-2 2v7h9c0-.7.13-1.37.35-2H6v-5h12v1.09c.33-.05.66-.09 1-.09s.67.04 1 .09zm-5-2H9V6h6zm-8 5v-2h4v2zm9 1h2v6h-2zm6 0v6h-2v-6z"/></svg>

<svg  viewBox="0 0 24 24" fill="currentColor"><path  d="M20 12C20 10.9 19.11 10 18 10H17V4H7V10H6C4.89 10 4 10.9 4 12V19H13C13 18.3 13.13 17.63 13.35 17H6V12H18V13.09C18.33 13.04 18.66 13 19 13C19.34 13 19.67 13.04 20 13.09V12M15 10H9V6H15V10M7 15V13H11V15H7M16 16H18V22H16V16M22 16V22H20V16H22Z"/></svg>
